www/images/add@2x-1.svg

<svg fill="none" height="55" viewBox="0 0 54 55" width="54" xmlns="http://www.w3.org/2000/svg"><path d="m11.7523 16.521c0-.3643.2953-.6597.6596-.6597h11.4339c.3643 0 .6596.2954.6596.6597v.958c0 .3643-.2953.6597-.6596.6597h-11.4339c-.3643 0-.6596-.2954-.6596-.6597z" fill="#000"/><path d="m17.7793 23.3766c-.3643 0-.6596-.2954-.6596-.6597v-11.4339c0-.3643.2953-.6596.6596-.6596h.9581c.3643 0 .6596.2953.6596.6596v11.4339c0 .3643-.2953.6597-.6596.6597z" fill="#000"/><circle cx="18" cy="17" r="11" stroke="#000" stroke-width="2"/><path d="m35.3869 22.2264-.0795.0459c-.3024.1739-.5665.407-.7766.6853-.2526-.3646-.5947-.6581-.9934-.8524-.3988-.1942-.8408-.2827-1.2836-.2569-.4428.0259-.8715.1652-1.245.4045-.3734.2394-.679.5707-.8875.9622-.5456-.3118-1.1862-.4144-1.802-.2884-.6158.1261-1.1646.472-1.5439.9731l-1.7793-3.0818c-.3462-.5997-.9165-1.0373-1.5853-1.2165-.6689-.1792-1.3816-.0854-1.9812.2608-.5997.3463-1.0373.9165-1.2165 1.5854-.1792.6688-.0854 1.3815.2608 1.9812l4.806 8.3242-.1846-.0929-.0846-.0385c-.3239-.1224-.6693-.1778-1.0153-.1629-.346.015-.6853.1-.9975.2499-.3122.15-.5907.3617-.8187.6223-.2279.2607-.4006.5649-.5076.8943-.1955.6095-.1564 1.2701.1094 1.8523.2658.5823.7393 1.0445 1.3279 1.296l9.496 4.8807 1.8603 3.2222c.1074.186.2843.3218.4918.3774s.4286.0265.6147-.0809l9.2922-5.3649c.1861-.1074.3218-.2844.3774-.4919s.0265-.4286-.0809-.6146l-1.8522-3.2081.3346-3.5353c.0164-.1678-.02-.3364-.104-.4825l-4.5657-7.908c-.1729-.2981-.403-.559-.6772-.7678-.2741-.2088-.5868-.3614-.9201-.4488-.3333-.0875-.6806-.1082-1.022-.0609-.3413.0472-.6699.1615-.9669.3363zm6.5987 9.4529-.3346 3.5353c-.0164.1677.02.3364.104.4825l1.5741 2.7264-7.866 4.5414-1.5741-2.7264c-.0779-.1342-.1928-.2432-.3309-.314l-9.7342-4.9801-.0671-.0299c-.1698-.0679-.3161-.1839-.4209-.3338s-.1636-.3271-.1692-.5099.0423-.3632.1378-.5192.2344-.2807.3998-.3589c.2196-.1068.4724-.1228.7037-.0446l2.5867 1.3374c.1581.0925.3429.1286.5243.1025.1813-.0261.3484-.1129.474-.2462.1257-.1333.2024-.3053.2177-.4878.0153-.1826-.0317-.3649-.1334-.5173l-6.1911-10.7233c-.1314-.2276-.167-.4981-.099-.7519.068-.2539.2341-.4703.4617-.6017s.4981-.167.7519-.099c.2539.068.4703.2341.6017.4617l4.9167 8.516c.1074.186.2843.3218.4918.3774.2076.0556.4286.0264.6147-.081.186-.1074.3218-.2843.3774-.4918s.0265-.4286-.0809-.6146l-1.9359-3.3531c-.1314-.2276-.167-.4981-.099-.7519.068-.2539.2341-.4703.4617-.6017s.498-.167.7519-.099c.2538.068.4703.2341.6017.4617l1.9359 3.3531c.1074.186.2843.3218.4918.3774s.4286.0264.6146-.081c.1861-.1074.3218-.2843.3774-.4918s.0265-.4286-.0809-.6146l-1.4904-2.5815c-.1314-.2276-.167-.4981-.099-.7519.068-.2539.2341-.4703.4617-.6017s.4981-.167.7519-.099c.2539.068.4703.2341.6017.4617l2.1033 3.643c.1074.1861.2843.3218.4918.3774.2076.0556.4286.0265.6147-.0809.186-.1074.3218-.2843.3774-.4918s.0265-.4286-.0809-.6147l-.459-.795s0 0-.0189-.0327l-.54-.9353c-.1311-.227-.1666-.4967-.0988-.7499.0679-.2531.2335-.469.4605-.6l.0795-.0459c.227-.1311.4967-.1666.7498-.0988.2532.0679.469.2335.6001.4605z" fill="#000"/><path d="m41.9856 31.6793-.3346 3.5353c-.0164.1677.02.3364.104.4825l1.5741 2.7264-7.866 4.5414-1.5741-2.7264c-.0779-.1342-.1928-.2432-.3309-.314l-9.7342-4.9801-.0671-.0299c-.1698-.0679-.3161-.1839-.4209-.3338s-.1636-.3271-.1692-.5099.0423-.3632.1378-.5192.2344-.2807.3998-.3589c.2196-.1068.4724-.1228.7037-.0446l2.5867 1.3374c.1581.0925.3429.1286.5243.1025.1813-.0261.3484-.1129.474-.2462.1257-.1333.2024-.3053.2177-.4878.0153-.1826-.0317-.3649-.1334-.5173l-6.1911-10.7233c-.1314-.2276-.167-.4981-.099-.7519.068-.2539.2341-.4703.4617-.6017s.4981-.167.7519-.099c.2539.068.4703.2341.6017.4617l4.9167 8.516c.1074.186.2843.3218.4918.3774.2076.0556.4286.0264.6147-.081.186-.1074.3218-.2843.3774-.4918s.0265-.4286-.0809-.6146l-1.9359-3.3531c-.1314-.2276-.167-.4981-.099-.7519.068-.2539.2341-.4703.4617-.6017s.498-.167.7519-.099c.2538.068.4703.2341.6017.4617l1.9359 3.3531c.1074.186.2843.3218.4918.3774s.4286.0264.6146-.081c.1861-.1074.3218-.2843.3774-.4918s.0265-.4286-.0809-.6146l-1.4904-2.5815c-.1314-.2276-.167-.4981-.099-.7519.068-.2539.2341-.4703.4617-.6017s.4981-.167.7519-.099c.2539.068.4703.2341.6017.4617l2.1033 3.643c.1074.1861.2843.3218.4918.3774.2076.0556.4286.0265.6147-.0809.186-.1074.3218-.2843.3774-.4918s.0265-.4286-.0809-.6147l-.459-.795s0 0-.0189-.0327l-.54-.9353c-.1311-.227-.1666-.4967-.0988-.7499.0679-.2531.2335-.469.4605-.6l.0795-.0459c.227-.1311.4967-.1666.7498-.0988.2532.0679.469.2335.6001.4605z" fill="#fff"/></svg>

<svg width="54" height="55" viewBox="0 0 54 55" fill="none" xmlns="http://www.w3.org/2000/svg">
<path d="M11.7523 16.521C11.7523 16.1567 12.0476 15.8613 12.4119 15.8613L23.8458 15.8613C24.2101 15.8613 24.5054 16.1567 24.5054 16.521V17.479C24.5054 17.8433 24.2101 18.1387 23.8458 18.1387L12.4119 18.1387C12.0476 18.1387 11.7523 17.8433 11.7523 17.479L11.7523 16.521Z" fill="black"/>
<path d="M17.7793 23.3766C17.415 23.3766 17.1197 23.0812 17.1197 22.7169L17.1197 11.283C17.1197 10.9187 17.415 10.6234 17.7793 10.6234L18.7374 10.6234C19.1017 10.6234 19.397 10.9187 19.397 11.283L19.397 22.7169C19.397 23.0812 19.1017 23.3766 18.7374 23.3766L17.7793 23.3766Z" fill="black"/>
<circle cx="18" cy="17" r="11" stroke="black" stroke-width="2"/>
<path d="M35.3869 22.2264L35.3074 22.2723C35.005 22.4462 34.7409 22.6793 34.5308 22.9576C34.2782 22.593 33.9361 22.2995 33.5374 22.1052C33.1386 21.911 32.6966 21.8225 32.2538 21.8483C31.811 21.8742 31.3823 22.0135 31.0088 22.2528C30.6354 22.4922 30.3298 22.8235 30.1213 23.215C29.5757 22.9032 28.9351 22.8006 28.3193 22.9266C27.7035 23.0527 27.1547 23.3986 26.7754 23.8997L24.9961 20.8179C24.6499 20.2182 24.0796 19.7806 23.4108 19.6014C22.7419 19.4222 22.0292 19.516 21.4296 19.8622C20.8299 20.2085 20.3923 20.7787 20.2131 21.4476C20.0339 22.1164 20.1277 22.8291 20.4739 23.4288L25.2799 31.753L25.0953 31.6601L25.0107 31.6216C24.6868 31.4992 24.3414 31.4438 23.9954 31.4587C23.6494 31.4737 23.3101 31.5587 22.9979 31.7086C22.6857 31.8586 22.4072 32.0703 22.1792 32.3309C21.9513 32.5916 21.7786 32.8958 21.6716 33.2252C21.4761 33.8347 21.5152 34.4953 21.781 35.0775C22.0468 35.6598 22.5203 36.122 23.1089 36.3735L32.6049 41.2542L34.4652 44.4764C34.5726 44.6624 34.7495 44.7982 34.957 44.8538C35.1645 44.9094 35.3856 44.8803 35.5717 44.7729L44.8639 39.408C45.05 39.3006 45.1857 39.1236 45.2413 38.9161C45.2969 38.7086 45.2678 38.4875 45.1604 38.3015L43.3082 35.0934L43.6428 31.5581C43.6592 31.3903 43.6228 31.2217 43.5388 31.0756L38.9731 23.1676C38.8002 22.8695 38.5701 22.6086 38.2959 22.3998C38.0218 22.191 37.7091 22.0384 37.3758 21.951C37.0425 21.8635 36.6952 21.8428 36.3538 21.8901C36.0125 21.9373 35.6839 22.0516 35.3869 22.2264ZM41.9856 31.6793L41.651 35.2146C41.6346 35.3823 41.671 35.551 41.755 35.6971L43.3291 38.4235L35.4631 42.9649L33.889 40.2385C33.8111 40.1043 33.6962 39.9953 33.5581 39.9245L23.8239 34.9444L23.7568 34.9145C23.587 34.8466 23.4407 34.7306 23.3359 34.5807C23.2311 34.4308 23.1723 34.2536 23.1667 34.0708C23.1611 33.888 23.209 33.7076 23.3045 33.5516C23.4 33.3956 23.5389 33.2709 23.7043 33.1927C23.9239 33.0859 24.1767 33.0699 24.408 33.1481L26.9947 34.4855C27.1528 34.578 27.3376 34.6141 27.519 34.588C27.7003 34.5619 27.8674 34.4751 27.993 34.3418C28.1187 34.2085 28.1954 34.0365 28.2107 33.854C28.226 33.6714 28.179 33.4891 28.0773 33.3367L21.8862 22.6134C21.7548 22.3858 21.7192 22.1153 21.7872 21.8615C21.8552 21.6076 22.0213 21.3912 22.2489 21.2598C22.4765 21.1284 22.747 21.0928 23.0008 21.1608C23.2547 21.2288 23.4711 21.3949 23.6025 21.6225L28.5192 30.1385C28.6266 30.3245 28.8035 30.4603 29.011 30.5159C29.2186 30.5715 29.4396 30.5423 29.6257 30.4349C29.8117 30.3275 29.9475 30.1506 30.0031 29.9431C30.0587 29.7356 30.0296 29.5145 29.9222 29.3285L27.9863 25.9754C27.8549 25.7478 27.8193 25.4773 27.8873 25.2235C27.9553 24.9696 28.1214 24.7532 28.349 24.6218C28.5766 24.4904 28.847 24.4548 29.1009 24.5228C29.3547 24.5908 29.5712 24.7569 29.7026 24.9845L31.6385 28.3376C31.7459 28.5236 31.9228 28.6594 32.1303 28.715C32.3378 28.7706 32.5589 28.7414 32.7449 28.634C32.931 28.5266 33.0667 28.3497 33.1223 28.1422C33.1779 27.9347 33.1488 27.7136 33.0414 27.5276L31.551 24.9461C31.4196 24.7185 31.384 24.448 31.452 24.1942C31.52 23.9403 31.6861 23.7239 31.9137 23.5925C32.1413 23.4611 32.4118 23.4255 32.6656 23.4935C32.9195 23.5615 33.1359 23.7276 33.2673 23.9552L35.3706 27.5982C35.478 27.7843 35.6549 27.92 35.8624 27.9756C36.07 28.0312 36.291 28.0021 36.4771 27.8947C36.6631 27.7873 36.7989 27.6104 36.8545 27.4029C36.9101 27.1954 36.881 26.9743 36.7736 26.7882L36.3146 25.9932C36.3146 25.9932 36.3146 25.9932 36.2957 25.9605L35.7557 25.0252C35.6246 24.7982 35.5891 24.5285 35.6569 24.2753C35.7248 24.0222 35.8904 23.8063 36.1174 23.6753L36.1969 23.6294C36.4239 23.4983 36.6936 23.4628 36.9467 23.5306C37.1999 23.5985 37.4157 23.7641 37.5468 23.9911L41.9856 31.6793Z" fill="black"/>
<path d="M41.9856 31.6793L41.651 35.2146C41.6346 35.3823 41.671 35.551 41.755 35.6971L43.3291 38.4235L35.4631 42.9649L33.889 40.2385C33.8111 40.1043 33.6962 39.9953 33.5581 39.9245L23.8239 34.9444L23.7568 34.9145C23.587 34.8466 23.4407 34.7306 23.3359 34.5807C23.2311 34.4308 23.1723 34.2536 23.1667 34.0708C23.1611 33.888 23.209 33.7076 23.3045 33.5516C23.4 33.3956 23.5389 33.2709 23.7043 33.1927C23.9239 33.0859 24.1767 33.0699 24.408 33.1481L26.9947 34.4855C27.1528 34.578 27.3376 34.6141 27.519 34.588C27.7003 34.5619 27.8674 34.4751 27.993 34.3418C28.1187 34.2085 28.1954 34.0365 28.2107 33.854C28.226 33.6714 28.179 33.4891 28.0773 33.3367L21.8862 22.6134C21.7548 22.3858 21.7192 22.1153 21.7872 21.8615C21.8552 21.6076 22.0213 21.3912 22.2489 21.2598C22.4765 21.1284 22.747 21.0928 23.0008 21.1608C23.2547 21.2288 23.4711 21.3949 23.6025 21.6225L28.5192 30.1385C28.6266 30.3245 28.8035 30.4603 29.011 30.5159C29.2186 30.5715 29.4396 30.5423 29.6257 30.4349C29.8117 30.3275 29.9475 30.1506 30.0031 29.9431C30.0587 29.7356 30.0296 29.5145 29.9222 29.3285L27.9863 25.9754C27.8549 25.7478 27.8193 25.4773 27.8873 25.2235C27.9553 24.9696 28.1214 24.7532 28.349 24.6218C28.5766 24.4904 28.847 24.4548 29.1009 24.5228C29.3547 24.5908 29.5712 24.7569 29.7026 24.9845L31.6385 28.3376C31.7459 28.5236 31.9228 28.6594 32.1303 28.715C32.3378 28.7706 32.5589 28.7414 32.7449 28.634C32.931 28.5266 33.0667 28.3497 33.1223 28.1422C33.1779 27.9347 33.1488 27.7136 33.0414 27.5276L31.551 24.9461C31.4196 24.7185 31.384 24.448 31.452 24.1942C31.52 23.9403 31.6861 23.7239 31.9137 23.5925C32.1413 23.4611 32.4118 23.4255 32.6656 23.4935C32.9195 23.5615 33.1359 23.7276 33.2673 23.9552L35.3706 27.5982C35.478 27.7843 35.6549 27.92 35.8624 27.9756C36.07 28.0312 36.291 28.0021 36.4771 27.8947C36.6631 27.7873 36.7989 27.6104 36.8545 27.4029C36.9101 27.1954 36.881 26.9743 36.7736 26.7882L36.3146 25.9932C36.3146 25.9932 36.3146 25.9932 36.2957 25.9605L35.7557 25.0252C35.6246 24.7982 35.5891 24.5285 35.6569 24.2753C35.7248 24.0222 35.8904 23.8063 36.1174 23.6753L36.1969 23.6294C36.4239 23.4983 36.6936 23.4628 36.9467 23.5306C37.1999 23.5985 37.4157 23.7641 37.5468 23.9911L41.9856 31.6793Z" fill="white"/>
</svg>
